packages/core/src/svgs/tokens/branded/KEEP.svg

<svg width="24" height="24" viewBox="0 0 24 24" fill="none" xmlns="http://www.w3.org/2000/svg">
<path fill-rule="evenodd" clip-rule="evenodd" d="M12 22C13.3133 22 14.6136 21.7414 15.8268 21.2388C17.0401 20.7362 18.1425 19.9997 19.071 19.0711C19.9997 18.1425 20.7362 17.0401 21.2388 15.8269C21.7414 14.6136 22 13.3132 22 12C22 10.6868 21.7414 9.38643 21.2388 8.17317C20.7362 6.95992 19.9997 5.85752 19.071 4.92894C18.1425 4.00035 17.0401 3.26376 15.8268 2.76121C14.6136 2.25866 13.3133 2 12 2C9.34784 2 6.80429 3.05358 4.92894 4.92894C3.05358 6.80431 2 9.34784 2 12C2 14.6522 3.05358 17.1957 4.92894 19.0711C6.80429 20.9465 9.34784 22 12 22ZM8.66667 7.55556H7.55556V9.77773H8.11112V14.2222H7.55556V16.4444H11.4444V14.2222H10.8889V12.8334H11.55L12.6722 14.2222H12.5556V16.4444H16.4445V14.2222H15.7445L13.8112 11.9889L15.6833 9.77773H16.4445V7.55556H12.5556V9.77773H12.7223L11.4667 11.1667H10.8889V9.77773H11.4444V7.55556H10.3333V8.11112H9.77774V7.55556H9.22222V8.11112H8.66667V7.55556Z" fill="#49DBB4"/>
</svg>

<svg xmlns="http://www.w3.org/2000/svg" width="24" height="24" fill="none" viewBox="0 0 24 24">
    <path fill="#49DBB4" fill-rule="evenodd" d="M12 22a9.998 9.998 0 0 0 9.239-13.827A10 10 0 1 0 12 22M8.667 7.556H7.556v2.222h.555v4.444h-.555v2.222h3.888v-2.222h-.555v-1.389h.661l1.122 1.39h-.116v2.221h3.889v-2.222h-.7L13.81 11.99l1.872-2.211h.762V7.556h-3.89v2.222h.167l-1.255 1.389h-.578v-1.39h.555v-2.22h-1.11v.555h-.556v-.555h-.556v.555h-.555z" clip-rule="evenodd"/>
</svg>
